src/assets/logos/reactjs.svg

<svg width="56" height="53" viewBox="0 0 56 53" fill="none" xmlns="http://www.w3.org/2000/svg">
<path d="M27.9999 31.1728C30.5731 31.1728 32.659 29.0808 32.659 26.5002C32.659 23.9196 30.5731 21.8276 27.9999 21.8276C25.4268 21.8276 23.3408 23.9196 23.3408 26.5002C23.3408 29.0808 25.4268 31.1728 27.9999 31.1728Z" fill="#61DAFB"/>
<path d="M28 36.073C41.8071 36.073 53 31.787 53 26.4999C53 21.2128 41.8071 16.9268 28 16.9268C14.1929 16.9268 3 21.2128 3 26.4999C3 31.787 14.1929 36.073 28 36.073Z" stroke="#61DAFB" stroke-width="5"/>
<path d="M19.7334 31.2866C26.6369 43.2786 35.9345 50.857 40.5 48.2134C45.0655 45.5699 43.1702 33.7054 36.2666 21.7134C29.363 9.72143 20.0655 2.14302 15.5 4.78657C10.9345 7.43012 12.8298 19.2946 19.7334 31.2866Z" stroke="#61DAFB" stroke-width="5"/>
<path d="M19.7334 21.7135C12.8298 33.7055 10.9345 45.57 15.5 48.2135C20.0655 50.8571 29.363 43.2787 36.2666 31.2867C43.1702 19.2947 45.0655 7.43022 40.5 4.78667C35.9345 2.14312 26.637 9.72154 19.7334 21.7135Z" stroke="#61DAFB" stroke-width="5"/>
</svg>

<svg width="56" height="53" fill="none" xmlns="http://www.w3.org/2000/svg"><path d="M28 31.173a4.666 4.666 0 0 0 4.659-4.673 4.666 4.666 0 0 0-4.66-4.672 4.666 4.666 0 0 0-4.658 4.672A4.666 4.666 0 0 0 28 31.173z" fill="#61DAFB"/><path d="M28 36.073c13.807 0 25-4.286 25-9.573 0-5.287-11.193-9.573-25-9.573S3 21.213 3 26.5c0 5.287 11.193 9.573 25 9.573z" stroke="#61DAFB" stroke-width="5"/><path d="M19.733 31.287c6.904 11.992 16.201 19.57 20.767 16.926 4.566-2.643 2.67-14.508-4.233-26.5C29.363 9.721 20.065 2.143 15.5 4.787c-4.566 2.643-2.67 14.508 4.233 26.5z" stroke="#61DAFB" stroke-width="5"/><path d="M19.733 21.713c-6.903 11.992-8.799 23.857-4.233 26.5 4.566 2.644 13.863-4.934 20.767-16.926C43.17 19.295 45.065 7.43 40.5 4.787c-4.566-2.644-13.863 4.935-20.767 16.927z" stroke="#61DAFB" stroke-width="5"/></svg>
